src/lib/packages/icons/src/assets/line/location-arrow.svg

<svg width="24" height="24" viewBox="0 0 24 24" fill="none" xmlns="http://www.w3.org/2000/svg">
<path d="M12.469 21.75C12.419 21.75 12.368 21.7479 12.317 21.7439C11.552 21.6819 10.922 21.165 10.711 20.428L9.62098 16.6121C9.30998 15.5251 8.47599 14.6909 7.38899 14.3799L3.57301 13.2901C2.83501 13.0791 2.31903 12.4491 2.25703 11.6841C2.19503 10.9191 2.60398 10.214 3.29798 9.88699L19.148 2.42899C19.851 2.09699 20.663 2.23907 21.213 2.79007C21.764 3.34007 21.905 4.15101 21.574 4.85501L14.116 20.7051C13.809 21.3511 13.174 21.75 12.469 21.75ZM19.785 3.78494L3.93501 11.243C3.75901 11.326 3.74401 11.478 3.75001 11.562C3.75601 11.646 3.79598 11.793 3.98298 11.847L7.79902 12.937C9.38802 13.391 10.608 14.61 11.061 16.199L12.151 20.0149C12.205 20.2029 12.352 20.2421 12.436 20.2481C12.52 20.2491 12.672 20.24 12.755 20.063L20.213 4.21292C20.297 4.03392 20.209 3.90696 20.149 3.84696C20.092 3.78896 19.963 3.69994 19.785 3.78494Z" fill="currentColor"/>
</svg>

<svg xmlns="http://www.w3.org/2000/svg" width="24" height="24" fill="none"><path fill="currentColor" d="M12.469 21.75a1.81 1.81 0 0 1-1.758-1.322l-1.09-3.816a3.232 3.232 0 0 0-2.232-2.232l-3.816-1.09a1.808 1.808 0 0 1-1.316-1.606 1.81 1.81 0 0 1 1.041-1.797l15.85-7.458a1.803 1.803 0 0 1 2.065.361c.551.55.692 1.361.361 2.065l-7.458 15.85a1.814 1.814 0 0 1-1.647 1.045Zm7.316-17.965-15.85 7.458a.309.309 0 0 0-.185.319.306.306 0 0 0 .233.285l3.816 1.09a4.719 4.719 0 0 1 3.262 3.262l1.09 3.816a.305.305 0 0 0 .285.233c.084.001.236-.008.319-.185l7.458-15.85a.306.306 0 0 0-.064-.366.304.304 0 0 0-.364-.062Z"/></svg>
